img/settings.svg

<svg xmlns="http://www.w3.org/2000/svg" width="18" height="18" viewBox="0 0 18 18">
  <path d="M12.4 14.7l-.6-1.5c.3-.2.5-.4.8-.6.2-.2.4-.5.6-.7l1.5.6c.3.1.5 0 .7-.3l.4-.9c.1-.3 0-.5-.3-.7l-1.6-.6c.1-.6.1-1.3 0-1.9l1.5-.6c.3-.1.4-.4.3-.7l-.4-.9c-.1-.3-.4-.4-.7-.3l-1.5.6c-.1-.2-.3-.5-.6-.7-.2-.2-.5-.4-.7-.6l.6-1.5c.1-.3 0-.5-.3-.7l-.9-.4c-.3-.1-.5 0-.7.3L10 4.1c-.6-.1-1.3-.1-1.9 0l-.6-1.5c-.1-.3-.4-.4-.7-.3l-.9.4c-.2.1-.4.4-.3.7l.6 1.5c-.2.1-.5.3-.7.6-.2.2-.4.4-.6.7l-1.5-.7c-.3-.1-.5 0-.7.3l-.3.9c-.1.3 0 .6.2.7l1.5.6c-.1.6-.1 1.3 0 1.9l-1.5.6c-.3.1-.4.4-.3.7l.4.9c.1.3.4.4.7.3l1.5-.6c.1.2.3.5.6.7.2.2.5.4.7.6l-.6 1.5c-.1.3 0 .5.3.7l.9.4c.3.1.5 0 .7-.3l.5-1.5c.6.1 1.3.1 1.9 0l.6 1.5c.1.3.4.4.7.3l.9-.4c.2-.1.4-.4.3-.6zm-5-4.1c-.9-.9-.9-2.3 0-3.2.9-.9 2.3-.9 3.2 0 .9.9.9 2.3 0 3.2-.9.9-2.3.9-3.2 0z"/>
</svg>

<svg xmlns="http://www.w3.org/2000/svg" width="18" height="18" viewBox="0 0 18 18">
  <path d="M12.4,14.7l-0.6-1.5c0.3-0.2,0.5-0.4,0.8-0.6c0.2-0.2,0.4-0.5,0.6-0.7l1.5,0.6 c0.3,0.1,0.5,0,0.7-0.3l0.4-0.9c0.1-0.3,0-0.5-0.3-0.7L13.9,10c0.1-0.6,0.1-1.3,0-1.9l1.5-0.6c0.3-0.1,0.4-0.4,0.3-0.7l-0.4-0.9 c-0.1-0.3-0.4-0.4-0.7-0.3l-1.5,0.6C13,6,12.8,5.7,12.5,5.5c-0.2-0.2-0.5-0.4-0.7-0.6l0.6-1.5c0.1-0.3,0-0.5-0.3-0.7l-0.9-0.4 c-0.3-0.1-0.5,0-0.7,0.3L10,4.1C9.4,4,8.7,4,8.1,4.1L7.5,2.6C7.4,2.3,7.1,2.2,6.8,2.3L5.9,2.7C5.7,2.8,5.5,3.1,5.6,3.4l0.6,1.5 C6,5,5.7,5.2,5.5,5.5C5.3,5.7,5.1,5.9,4.9,6.2L3.4,5.5c-0.3-0.1-0.5,0-0.7,0.3L2.4,6.7C2.3,7,2.4,7.3,2.6,7.4L4.1,8 C4,8.6,4,9.3,4.1,9.9l-1.5,0.6c-0.3,0.1-0.4,0.4-0.3,0.7l0.4,0.9c0.1,0.3,0.4,0.4,0.7,0.3l1.5-0.6C5,12,5.2,12.3,5.5,12.5 c0.2,0.2,0.5,0.4,0.7,0.6l-0.6,1.5c-0.1,0.3,0,0.5,0.3,0.7l0.9,0.4c0.3,0.1,0.5,0,0.7-0.3L8,13.9c0.6,0.1,1.3,0.1,1.9,0l0.6,1.5 c0.1,0.3,0.4,0.4,0.7,0.3l0.9-0.4C12.3,15.2,12.5,14.9,12.4,14.7z M7.4,10.6c-0.9-0.9-0.9-2.3,0-3.2c0.9-0.9,2.3-0.9,3.2,0 c0.9,0.9,0.9,2.3,0,3.2C9.7,11.5,8.3,11.5,7.4,10.6z"/>
</svg>
